X: 20797
T: Johnny Mickey's
R: slide
M: 12/8
K: Dmajor
FEF F2E D3 D2 E|FGF FED E3 E2F|
GFG B2G FEF A2F|EDE F2E D3 D3:|
ABd A2F A3 A3|ABd A2F G3 G2F|
GFG B2G FEF A2F|1 EDE F2E D3 D3:|2 E3 EFE D3 D3||

